icons/sentry.svg

<svg xmlns="http://www.w3.org/2000/svg" viewBox="0 0 350 350"><defs><clipPath id="sentry-__a"><path d="m103 232 8 8v19c-21 25 24 28 63 48l-16-32 11-2 13 45H98v-83Z"/><path d="m251 236-8 9v17c23 21-26 34-57 46l11-33-10-2-7 47h83v-82Z"/><path d="m174 310 6.775 2.055L186 311l1 2-6 4-8-3Z"/></clipPath><mask id="sentry-__b"><path fill="#fff" d="M0 0h350v350H0z"/><path d="M175 38c54 0 83 41 86 90 0 10 4 22 9 34l-14 22-12 34-1 14c-24 37-36 51-55 51h-18c-23 0-47-37-58-54v-9l-15-36-13-23c2-8 5-17 9-25-3-52 30-98 82-98"/></mask></defs><path d="M45 45h260v260H45z" opacity=".4"/><path fill="#ff8e2d" d="m54 99 1-2 4 1 15-17 25 8 141-18 22-4-15 21 34-22 10-2v26l-30 9 4 3v2l28 2v20l-11 2-21-1-167 2H72l-17-2-1-12 27-8-27-2Zm17 33h7l8 7 175-2h20l1 3-17 4 17 1-1 28h2v8l-11 4-15 1-9 10 20-1 12 1 2 3h14l-2 26-20-2 19 9-1 11-3-1-14-2-7-5h-6l-2-1-12-1-140-17-23-5-21 3-8-8-1-20 17 2-19-11-1-16 12 2h15l-1-3-7-1Zm-12 89 25 4 24-2 135 22h14l10-5 8 5-2 5 4 3 11-1 4 3h9l-3 6-16-1 7 3h8l-6 14-52 3 51 1-4 8-44-4-132-9-40 3-9-7v-7l2-4 33-1-34-2v-2l2-1 1-7Z"/><path d="M104 209v49c-17 30 23 38 77 56 51-18 86-29 70-55v-50Z"/><path fill="#fff" d="M104 209v49c-17 30 23 38 77 56 51-18 86-29 70-55v-50Z" clip-path="url(#sentry-__a)"/><path d="M175 30c61 0 90 49 92 98 0 11 5 22 10 33-3 10-9 19-14 24-15 61-49 104-75 104h-18c-18 0-60-40-82-104-5-7-10-16-13-25 3-10 6-18 10-27 2-58 39-103 90-103"/><path fill="#fff" d="M175 30c61 0 90 49 92 98 0 11 5 22 10 33-3 10-9 19-14 24-15 61-49 104-75 104h-18c-18 0-60-40-82-104-5-7-10-16-13-25 3-10 6-18 10-27 2-58 39-103 90-103" mask="url(#sentry-__b)"/><path fill="#fff" d="M102 130c0-56 40-90 88-82-73 13-67 64-26 82Zm0 15 151-7 3 6Zm7 11h135v15c0 19-18 41-38 42-6-10-19-17-31-21-12 4-25 11-31 21-17-1-35-23-35-42Zm19 84 23 19h56l22-18-12 16-12 11-11 7 5-8h-40l4 7-9-5-13-11Z"/></svg>

<svg
  xmlns="http://www.w3.org/2000/svg"
  width="350"
  height="350"
  viewBox="0 0 350 350"
>
  <defs>
    <clipPath id="clip-path">
      <path
        d="M103 232 111 240V259C90 284 135 287 174 307L158 275 169 273 182 318H98V235Z"
      />
      <path
        d="M251 236 243 245V262C266 283 217 296 186 308L197 275 187 273 180 320H263V238Z"
      />
      <path d="M174 310 180.775 312.055 186 311 187 313 181 317 173 314Z" />
    </clipPath>
    <mask id="mask">
      <rect fill="#ffffff" x="0" y="0" width="350" height="350" />
      <path
        fill="black"
        d="M175 38C229 38 258 79 261 128 261 138 265 150 270 162L256 184 244 218 243 232C219 269 207 283 188 283H175 170C147 283 123 246 112 229L112 220 97 184 84 161C86 153 89 144 93 136 90 84 123 38 175 38Z"
      />
    </mask>
  </defs>
  <rect x="45" y="45" width="260" height="260" opacity="0.4" />
  <g id="planks" fill="#ff8e2d">
    <path
      d="M54 99 55 97 59 98 74 81 99 89 240 71 262 67 247 88 281 66 291 64 291 90 261 99 265 102 265 104 293 106 293 126 282 128 261 127 94 129 72 129 55 127 54 115 81 107 54 105Z"
    />
    <path
      d="M71 132H78L86 139 261 137 281 137 282 140 265 144 282 145 281 173 283 173 283 181 272 185 257 186 248 196 268 195 280 196 282 199 296 199 294 225 274 223 293 232 292 243 289 242 275 240 268 235 262 235 260 234 248 233 108 216 85 211 64 214 56 206 55 186 72 188 53 177 52 161 64 163 79 163 78 160 71 159Z"
    />
    <path
      d="M59 221 84 225 108 223 243 245 257 245 267 240 275 245 273 250 277 253 288 252 292 255 301 255 298 261 282 260 289 263 297 263 291 277 239 280 290 281 286 289 242 285 110 276 70 279 61 272 61 265 63 261 96 260 62 258 62 256 64 255 65 248Z"
    />
  </g>
  <g id="head">
    <path
      d="M104 209V258C87 288 127 296 181 314 232 296 267 285 251 259V209Z"
    />
    <path
      fill="#ffffff"
      clip-path="url(#clip-path)"
      d="M104 209V258C87 288 127 296 181 314 232 296 267 285 251 259V209Z"
    />
    <path
      d="M175 30C236 30 265 79 267 128 267 139 272 150 277 161 274 171 268 180 263 185 248 246 214 289 188 289H175 170C152 289 110 249 88 185 83 178 78 169 75 160 78 150 81 142 85 133 87 75 124 30 175 30Z"
    />
    <path
      fill="#ffffff"
      mask="url(#mask)"
      d="M175 30C236 30 265 79 267 128 267 139 272 150 277 161 274 171 268 180 263 185 248 246 214 289 188 289H175 170C152 289 110 249 88 185 83 178 78 169 75 160 78 150 81 142 85 133 87 75 124 30 175 30Z"
    />
    <g fill="#ffffff">
      <path d="M102 130C102 74 142 40 190 48 117 61 123 112 164 130Z" />
      <path d="M102 145 253 138 256 144Z" />
      <path
        d="M109 156H244V171C244 190 226 212 206 213 200 203 187 196 175 192 163 196 150 203 144 213 127 212 109 190 109 171Z"
      />
      <path
        d="M128 240 151 259H207L229 241 217 257 205 268 194 275 199 267H159L163 274 154 269 141 258Z"
      />
    </g>
  </g>
</svg>
